X: 1
T: The Eel In The Sink
R: reel
M: 4/4
L: 1/8
K: Amix
e2AB cdec|d2BG dG (3Bcd|eAAB cdef|1 gedg eAAc:|2 gedg eAAe||
a2ea aged|cdef (3gbg fg|a2ea agab|gedg eAAe|
a2ea aged|cdef (3gbg fg|afge fdef|gfgd BAAc||


Tune 1446	Setting 27935

